X:1
T:James Gibb editions
T:Wann unsre Augen schlafe ein - Schütz
T:#
%%score [ 1 2 ] 3
L:1/8
Q:1/4=108
M:4/4
K:F
V:1 treble nm="Soprano"
V:2 bass nm="Bass"
V:3 bass nm="Continuo"
V:1
"^Wann unsre Augen schlafe ein, SWV 316""^Heinrich Schütz\n(1585-1672)""^Erasmus Alberus\n(c.1500-53)" G4 G2 G2 | %1
w: Wann un- sre|
 ^F4 =F4 | E4 _E4 | D8 | z2 A2 E2 G2 | (DEDE FGFG | ABAB c2) A2 | (Bcdc BcAB | GF_EF GAGA | %9
w: Au- gen|schla- fen|ein,|so lass das|Herz * * * * * * *|* * * * * doch|wa\- * * * * * * *||
 BcBc d4- | d4) ^c4 | d8 | z8 | z8 | z8 | z8 | z8 | G4 G2 G2 | ^F4 =F4 | E4 _E4 | D2 d2 d2 d2 | %21
w: |* cker|sein,||||||wann un- sre|Au- gen|schla- fen|ein, wann un- sre|
 ^c4 =c4 | =B4 _B4 | A2 d2 A2 c2 | (GAGA BcBc | dede f2) d2 | (_efgf efde | cd_ed cdBc | %28
w: Au- gen|schla- fen|ein, so lass das|Herz * * * * * * *|* * * * * doch|wa\- * * * * * * *||
 ABcB ABGA | FG FG/A/ B4- | B4) A4 | B8 | z8 | A4 A2 A2 | ^G4 =G4 | (^F4 =F4) | %36
w: ||* cker|sein,||wann un- sre|Au- gen|schla\- *|
 (!courtesy!=E4 _E4) | D2 d2 d2 d2 | ^c4 =c4 | =B4 _B4 | A2 f2 c2 _e2 | (BcBc d2) B2 | %42
w: fen *|ein, wann un- sre|Au- gen|schla- fen|ein, so lass das|Herz * * * * doch|
 (cd_ed cdBc | ABcB ABGA | FGAG FGEF | DE DE/F/ G4- | G4) ^F4 | G8 | z8 | z8 | z8 | z8 | z4 d4 | %53
w: wa\- * * * * * * *||||* cker|sein,|||||halt|
 c4 B4 | A4 G4 | F4 E4 | D4 z2 d2 | e2 f2 B4 | z2 A2 B2 c2 | F2 z2 z4 | z2 F2 G2 A2 | DB c2 d2 GG | %62
w: ü- ber|uns dein|rech- te|Hand, dass|wir nicht falln,|dass wir nicht|falln,|dass wir nicht|falln, dass wir nicht falln, dass|
 A2 B2 _E2 z2 | z4 D4 | _E8 | D8 | C8 | z4 z2 A2 | B2 c2 F2 F2 | G2 A2 D2 d2 | _e2 f2 B2 Bc- | %71
w: wir nicht falln|in|Sünd|und|Schand,|dass|wir nicht falln, dass|wir nicht falln, dass|wir nicht falln, dass wir|
 c d2 G2 A2 B- | B c2 F2 D (B2- | B2 A2 G4- | G4) ^F4 | !fermata!G8 |] %76
w: * nicht falln, dass wir|* nicht falln in Sünd||* und|Schand.|
V:2
 z8 | z8 | z8 | D,4 D,2 D,2 | ^C,4 =C,4 | =B,,4 _B,,4 | A,,8 | z2 G,2 D,2 F,2 | %8
w: |||Wann un- sre|Au- gen|schla- fen|ein,|so lass das|
 (C,D,C,D, _E,F,E,F, | G,A,G,A, B,2) G,2 | (A,B,CB, A,B,G,A, | ^F,G,A,G, F,G,E,F, | %12
w: Herz * * * * * * *|* * * * * doch|wa\- * * * * * * *||
 D,E,=F,E, D,_E,C,D, | B,,2 G,,2 G,4- | G,4) ^F,4 | G,2 G,,2 G,,2 G,,2 | ^F,,4 =F,,4 | E,,4 _E,,4 | %18
w: ||* cker|sein, wann un- sre|Au- gen|schla- fen|
 D,,2 D,2 D,2 D,2 | ^C,4 =C,4 | =B,,4 _B,,4 | A,,8 | z2 G,2 G,2 G,2 | ^F,4 =F,4 | E,4 _E,4 | D,8 | %26
w: ein, wann un- sre|Au- gen|schla- fen|ein,|wann un- sre|Au- gen|schla- fen|ein,|
 z8 | z8 | z8 | z8 | z8 | z8 | D,4 D,2 D,2 | ^C,4 =C,4 | =B,,4 _B,,4 | A,,8- | A,,8 | z8 | %38
w: ||||||wann un- sre|Au- gen|schla- fen|ein,|||
 z2 A,,2 A,,2 C,2 | (G,,A,,G,,A,, B,,C,B,,C, | D,E,D,E, F,2) C,2 | (G,A,B,A, G,A,/B,/ A,G, | %42
w: so lass das|Herz * * * * * * *|* * * * * doch|wa\- * * * * * * * *|
 A,B,CB, A,B,G,A, | F,G,A,G, F,G,E,F, | D,E,F,E, D,E,C,D, | B,,C,B,,A,, G,,A,,B,,G,, | D,4) D,4 | %47
w: ||||* cker|
 G,,8 | z4 G,4 | F,4 _E,4 | D,4 C,4 | B,,4 A,,4 | G,,4 z2 D,2 | _E,2 F,2 B,,2 z2 | %54
w: sein,|halt|ü- ber|uns dein|rech- te|Hand, dass|wir nicht falln,|
 z2 A,,2 B,,2 C,2 | F,,2 F,2 G,2 A,2 | D,2 z2 B,4 | A,4 G,4 | F,4 _E,4 | D,4 C,4 | F,,4 z2 F,2 | %61
w: dass wir nicht|falln, dass wir nicht|falln, halt|ü- ber|uns dein|rech- te|Hand, dass|
 G,2 A,2 D,D, _E,2 | F,2 B,,B,, C,2 D,2 | G,,2 z2 z4 | z4 G,,4 | ^F,,4 G,,4 | C,4 z2 A,,2 | %67
w: wir nicht falln, dass wir|nicht falln, dass wir nicht|falln|in|Sünd und|Schand, dass|
 B,,2 C,2 F,,2 F,2 | G,2 A,2 D,2 D,2 | _E,2 F,2 B,,4 | z4 z2 _E,2 | F,2 G,2 C,2 D,2 | %72
w: wir nicht falln, dass|wir nicht falln, dass|wir nicht falln,|dass|wir nicht falln, dass|
 _E,2 F,2 B,,2 z G,, | _E,8 | D,8 | !fermata!G,,8 |] %76
w: wir nicht falln in|Sünd|und|Schand.|
V:3
 G,4 G,2 G,2 | D,4 F,4 | x4- x4 | D,4 D,2 D,2 | ^C,4 =C,4 | =B,,4 _B,,4 | A,,8 | G,,4 D,2 F,2 | %8
w: ||||6 *|||* 6 *|
w: ||||||||
 C,3 D, _E,3 F, | G,3 A, B,2 G,2 | A,4- A,2 G,2 | ^F,4- F,G,E,F, | D,6 C,2 | B,,2 G,,2 G,4- | %14
w: ||4 * *||||
w: ||||||
 G,4 ^F,4 | G,2 G,,2 G,,2 G,,2 | ^F,,4 =F,,4 | E,,4 _E,,4 | D,,2 D,2 D,2 D,2 | ^C,4 =C,4 | %20
w: ||||||
w: ||||||
 =B,,4 _B,,4 | x4- x4 | G,,4 G,2 G,2 | ^F,4 =F,4 | E,4 _E,4 | D,8 | C,8- | C,8 | F,6 E,2 | %29
w: |||6 *||||||
w: |||||||||
 D,4 B,,4 | x4- x4 | B,,8 | D,4 D,2 D,2 | ^C,4 =C,4 | =B,,4 _B,,4 | A,,4 A,,4 | x4- x4 | D,8 | %38
w: |4|||6 6|6 6|6 6|4||
w: ||||||* 4|||
 A,,4 A,,2 C,2 | G,,3 A,, B,,3 C, | D,3 E, F,2 C,2 | G,6 G,2 | A,B,CB, A,2 G,2 | F,G,A,G, F,2 E,2 | %44
w: ||||||
w: ||||||
 D,E,F,E, D,2 C,2 | B,,4 G,,4 | x4- x4 | G,,8 | z4 G,4 | F,4 _E,4 | D,4 C,4 | B,,4 A,,4 | %52
w: ||4||||||
w: ||||||||
 G,,4 D,4 | _E,2 F,2 B,,4 | F,,2 A,,2 B,,2 C,2 | F,,2 F,2 G,2 A,2 | D,4 B,4 | x2- x2 G,4 | %58
w: |||||5 *|
w: ||||||
 F,4 x2- x2 | D,4 C,4 | F,,4 E,2 F,2 | G,2 A,2 D,2 _E,2 | F,2 B,,2 C,2 D,2 | G,,4 G,,4 | x4- x4 | %65
w: * 5||||||6|
w: |||||||
 ^F,,4 G,,4 | C,4 A,,4 | B,,2 C,2 F,,2 F,2 | G,2 A,2 D,2 D,2 | _E,2 F,2 B,,4 | _E,2 D,2 E,2 x-x | %71
w: |||||* * * 5|
w: ||||||
 x-x G,2 x-xx-x | x-x F,2 B,,3 G,, | _E,8 | x4- x4 | !fermata!G,,8 |] %76
w: 5 * 5 5|5 * * *||4||
w: |||||

